X: 33221
T: Pub In The Square, The
R: hornpipe
M: 4/4
K: Dmajor
|:FG|ADFA GFEG|FDFA d2ef|gfge fAdf|e2dB A2FG|
ADFA GFEG|FAdf a2gf|gecA ^GABc|d2ec d2:|
fg|abag fdAG|gfge fAdf|gfge cdec|Acef g2fg|
abag fdAF|GFGB Adfd|Bged cABc|d2ce d2 fg|
abag fdAG|gfge fAdf|gfge cdec|AGFG E2FG|
AFAd fedc|BGBd g2fg|afdc Bgec|d2ec d4||

